X: 118
T: No_45_Song_When_Offering_the_Peace_Pipe.krn
%%abc-version 2.0
%%abcx-abcm2ps-target-version 5.9.1 (29 Sep 2008)
%%abc-creator hum2abc beta
%%abcx-conversion-date 2020/08/10 18:54:57
%%humdrum-veritas 3110175452
%%humdrum-veritas-data 184238820
%%linebreak <none>
%%barnumbers 0
L: 1/8
M: 2/4
K: G clef=bass
E/ [I:setbarnb 1]| 
E>ED2 ||  
[M:3/4]B,2B,2B,3/E/ ||  
[M:2/4]E>ED2 ||  
[M:3/4]B,2B,2B,3/D/ ||  
[M:2/4]D>B, B,3/B,/ | 
A,>G, G,3/A,/ | 
G,>E,E,2 | 
D,2B,,3/E,/ | 
E,2D,2 | 
B,,D, B,,3/B,,/ | 
B,,4 |]  


